images/indikatorenset/4147.svg

<?xml version="1.0" standalone="no"?><!DOCTYPE svg PUBLIC "-//W3C//DTD SVG 1.1//EN" "http://www.w3.org/Graphics/SVG/1.1/DTD/svg11.dtd"><svg xmlns:xlink="http://www.w3.org/1999/xlink" version="1.1" class="highcharts-root" style="font-family:arial;font-size:12px;" xmlns="http://www.w3.org/2000/svg" width="485" height="415"><desc>Created with Highstock 5.0.14</desc><defs><clipPath id="highcharts-p73ilyq-6"><rect x="0" y="0" width="434" height="275" fill="none"></rect></clipPath><clipPath id="highcharts-p73ilyq-7"><rect x="0" y="0" width="434" height="275" fill="none"></rect></clipPath></defs><rect fill="#fbfbfb" class="highcharts-background" x="0" y="0" width="485" height="415" rx="0" ry="0"></rect><rect fill="none" class="highcharts-plot-background" x="41" y="75" width="434" height="275"></rect><g class="highcharts-pane-group"></g><g class="highcharts-grid highcharts-xaxis-grid "><path fill="none" class="highcharts-grid-line" d="M 62.5 75 L 62.5 350" opacity="1"></path><path fill="none" class="highcharts-grid-line" d="M 97.5 75 L 97.5 350" opacity="1"></path><path fill="none" class="highcharts-grid-line" d="M 133.5 75 L 133.5 350" opacity="1"></path><path fill="none" class="highcharts-grid-line" d="M 168.5 75 L 168.5 350" opacity="1"></path><path fill="none" class="highcharts-grid-line" d="M 204.5 75 L 204.5 350" opacity="1"></path><path fill="none" class="highcharts-grid-line" d="M 239.5 75 L 239.5 350" opacity="1"></path><path fill="none" class="highcharts-grid-line" d="M 275.5 75 L 275.5 350" opacity="1"></path><path fill="none" class="highcharts-grid-line" d="M 310.5 75 L 310.5 350" opacity="1"></path><path fill="none" class="highcharts-grid-line" d="M 346.5 75 L 346.5 350" opacity="1"></path><path fill="none" class="highcharts-grid-line" d="M 381.5 75 L 381.5 350" opacity="1"></path><path fill="none" class="highcharts-grid-line" d="M 417.5 75 L 417.5 350" opacity="1"></path><path fill="none" class="highcharts-grid-line" d="M 452.5 75 L 452.5 350" opacity="1"></path></g><g class="highcharts-grid highcharts-yaxis-grid "><path fill="none" stroke="#B9CFD7" stroke-width="0.5" class="highcharts-grid-line" d="M 41 350.25 L 475 350.25" opacity="1"></path><path fill="none" stroke="#B9CFD7" stroke-width="0.5" class="highcharts-grid-line" d="M 41 304.25 L 475 304.25" opacity="1"></path><path fill="none" stroke="#B9CFD7" stroke-width="0.5" class="highcharts-grid-line" d="M 41 258.25 L 475 258.25" opacity="1"></path><path fill="none" stroke="#B9CFD7" stroke-width="0.5" class="highcharts-grid-line" d="M 41 213.25 L 475 213.25" opacity="1"></path><path fill="none" stroke="#B9CFD7" stroke-width="0.5" class="highcharts-grid-line" d="M 41 167.25 L 475 167.25" opacity="1"></path><path fill="none" stroke="#B9CFD7" stroke-width="0.5" class="highcharts-grid-line" d="M 41 121.25 L 475 121.25" opacity="1"></path><path fill="none" stroke="#B9CFD7" stroke-width="0.5" class="highcharts-grid-line" d="M 41 74.75 L 475 74.75" opacity="1"></path></g><rect fill="none" class="highcharts-plot-border" x="41" y="75" width="434" height="275"></rect><g class="highcharts-axis highcharts-xaxis "><path fill="none" class="highcharts-tick" stroke="#FFFFFF" stroke-width="1" d="M 62.5 350 L 62.5 360" opacity="1"></path><path fill="none" class="highcharts-tick" stroke="#FFFFFF" stroke-width="1" d="M 97.5 350 L 97.5 360" opacity="1"></path><path fill="none" class="highcharts-tick" stroke="#FFFFFF" stroke-width="1" d="M 133.5 350 L 133.5 360" opacity="1"></path><path fill="none" class="highcharts-tick" stroke="#FFFFFF" stroke-width="1" d="M 168.5 350 L 168.5 360" opacity="1"></path><path fill="none" class="highcharts-tick" stroke="#FFFFFF" stroke-width="1" d="M 204.5 350 L 204.5 360" opacity="1"></path><path fill="none" class="highcharts-tick" stroke="#FFFFFF" stroke-width="1" d="M 239.5 350 L 239.5 360" opacity="1"></path><path fill="none" class="highcharts-tick" stroke="#FFFFFF" stroke-width="1" d="M 275.5 350 L 275.5 360" opacity="1"></path><path fill="none" class="highcharts-tick" stroke="#FFFFFF" stroke-width="1" d="M 310.5 350 L 310.5 360" opacity="1"></path><path fill="none" class="highcharts-tick" stroke="#FFFFFF" stroke-width="1" d="M 346.5 350 L 346.5 360" opacity="1"></path><path fill="none" class="highcharts-tick" stroke="#FFFFFF" stroke-width="1" d="M 381.5 350 L 381.5 360" opacity="1"></path><path fill="none" class="highcharts-tick" stroke="#FFFFFF" stroke-width="1" d="M 417.5 350 L 417.5 360" opacity="1"></path><path fill="none" class="highcharts-tick" stroke="#FFFFFF" stroke-width="1" d="M 452.5 350 L 452.5 360" opacity="1"></path><path fill="none" class="highcharts-axis-line" stroke="#B9CFD7" stroke-width="0.5" d="M 41 350.25 L 475 350.25"></path></g><g class="highcharts-axis highcharts-yaxis "><path fill="none" class="highcharts-axis-line" d="M 41 75 L 41 350"></path></g><g class="highcharts-series-group"><g class="highcharts-series highcharts-series-0 highcharts-column-series highcharts-color-undefined " transform="translate(41,75) scale(1 1)" clip-path="url(#highcharts-p73ilyq-7)"><rect x="13" y="139" width="18" height="88" fill="#008AC3" class="highcharts-point highcharts-negative"></rect><rect x="49" y="139" width="18" height="113" fill="#008AC3" class="highcharts-point highcharts-negative"></rect><rect x="84" y="139" width="18" height="119" fill="#008AC3" class="highcharts-point highcharts-negative"></rect><rect x="120" y="139" width="18" height="121" fill="#008AC3" class="highcharts-point highcharts-negative"></rect><rect x="155" y="139" width="18" height="39" fill="#008AC3" class="highcharts-point highcharts-negative"></rect><rect x="191" y="139" width="18" height="10" fill="#008AC3" class="highcharts-point highcharts-negative"></rect><rect x="226" y="139" width="18" height="22" fill="#008AC3" class="highcharts-point highcharts-negative"></rect><rect x="262" y="96" width="18" height="43" fill="#008AC3" class="highcharts-point"></rect><rect x="297" y="66" width="18" height="73" fill="#008AC3" class="highcharts-point"></rect><rect x="333" y="95" width="18" height="44" fill="#008AC3" class="highcharts-point"></rect><rect x="368" y="18" width="18" height="121" fill="#008AC3" class="highcharts-point"></rect><rect x="404" y="28" width="18" height="111" fill="#008AC3" class="highcharts-point"></rect></g><g class="highcharts-markers highcharts-series-0 highcharts-column-series highcharts-color-undefined " transform="translate(41,75) scale(1 1)" clip-path="none"></g></g><text x="10" text-anchor="start" class="highcharts-title" style="color:#000000;font-size:14px;font-weight:bold;fill:#000000;" y="21"><tspan>Saldo des Steuerertrages von Zu- und Wegzügern</tspan></text><g class="highcharts-data-labels highcharts-series-0 highcharts-column-series highcharts-color-undefined " visibility="visible" transform="translate(41,75) scale(1 1)"><g class="highcharts-label highcharts-data-label highcharts-data-label-color-undefined " transform="translate(8,227)"><text x="5" style="font-size:10px;font-weight:bold;color:#000000;fill:#000000;" y="15"><tspan x="5" y="15" class="highcharts-text-outline" fill="#FFFFFF" stroke="#FFFFFF" stroke-width="2px" stroke-linejoin="round" style="">-9,7</tspan><tspan x="5" y="15">-9,7</tspan></text></g><g class="highcharts-label highcharts-data-label highcharts-data-label-color-undefined " transform="translate(53,252)"><text x="5" style="font-size:10px;font-weight:bold;color:#000000;fill:#000000;" y="15"></text></g><g class="highcharts-label highcharts-data-label highcharts-data-label-color-undefined " transform="translate(88,258)"><text x="5" style="font-size:10px;font-weight:bold;color:#000000;fill:#000000;" y="15"></text></g><g class="highcharts-label highcharts-data-label highcharts-data-label-color-undefined " transform="translate(124,260)"><text x="5" style="font-size:10px;font-weight:bold;color:#000000;fill:#000000;" y="15"></text></g><g class="highcharts-label highcharts-data-label highcharts-data-label-color-undefined " transform="translate(159,178)"><text x="5" style="font-size:10px;font-weight:bold;color:#000000;fill:#000000;" y="15"></text></g><g class="highcharts-label highcharts-data-label highcharts-data-label-color-undefined " transform="translate(195,149)"><text x="5" style="font-size:10px;font-weight:bold;color:#000000;fill:#000000;" y="15"></text></g><g class="highcharts-label highcharts-data-label highcharts-data-label-color-undefined " transform="translate(230,161)"><text x="5" style="font-size:10px;font-weight:bold;color:#000000;fill:#000000;" y="15"></text></g><g class="highcharts-label highcharts-data-label highcharts-data-label-color-undefined " transform="translate(266,86)"><text x="5" style="font-size:10px;font-weight:bold;color:#000000;fill:#000000;" y="15"></text></g><g class="highcharts-label highcharts-data-label highcharts-data-label-color-undefined " transform="translate(301,56)"><text x="5" style="font-size:10px;font-weight:bold;color:#000000;fill:#000000;" y="15"></text></g><g class="highcharts-label highcharts-data-label highcharts-data-label-color-undefined " transform="translate(337,85)"><text x="5" style="font-size:10px;font-weight:bold;color:#000000;fill:#000000;" y="15"></text></g><g class="highcharts-label highcharts-data-label highcharts-data-label-color-undefined " transform="translate(372,8)"><text x="5" style="font-size:10px;font-weight:bold;color:#000000;fill:#000000;" y="15"></text></g><g class="highcharts-label highcharts-data-label highcharts-data-label-color-undefined " transform="translate(398,5)"><text x="5" style="font-size:10px;font-weight:bold;color:#000000;fill:#000000;" y="15"><tspan x="5" y="15" class="highcharts-text-outline" fill="#FFFFFF" stroke="#FFFFFF" stroke-width="2px" stroke-linejoin="round" style="">12,1</tspan><tspan x="5" y="15">12,1</tspan></text></g></g><g class="highcharts-axis-labels highcharts-xaxis-labels "><text x="62.664484451715296" style="color:#000000;cursor:default;font-size:11px;fill:#000000;" text-anchor="middle" transform="translate(0,0)" y="369" opacity="1">2002</text><text x="98.18003273322161" style="color:#000000;cursor:default;font-size:11px;fill:#000000;" text-anchor="middle" transform="translate(0,0)" y="369" opacity="1">2003</text><text x="133.6955810147279" style="color:#000000;cursor:default;font-size:11px;fill:#000000;" text-anchor="middle" transform="translate(0,0)" y="369" opacity="1">2004</text><text x="169.21112929623422" style="color:#000000;cursor:default;font-size:11px;fill:#000000;" text-anchor="middle" transform="translate(0,0)" y="369" opacity="1">2005</text><text x="204.72667757774056" style="color:#000000;cursor:default;font-size:11px;fill:#000000;" text-anchor="middle" transform="translate(0,0)" y="369" opacity="1">2006</text><text x="240.24222585924687" style="color:#000000;cursor:default;font-size:11px;fill:#000000;" text-anchor="middle" transform="translate(0,0)" y="369" opacity="1">2007</text><text x="275.7577741407532" style="color:#000000;cursor:default;font-size:11px;fill:#000000;" text-anchor="middle" transform="translate(0,0)" y="369" opacity="1">2008</text><text x="311.2733224222595" style="color:#000000;cursor:default;font-size:11px;fill:#000000;" text-anchor="middle" transform="translate(0,0)" y="369" opacity="1">2009</text><text x="346.7888707037658" style="color:#000000;cursor:default;font-size:11px;fill:#000000;" text-anchor="middle" transform="translate(0,0)" y="369" opacity="1">2010</text><text x="382.3044189852721" style="color:#000000;cursor:default;font-size:11px;fill:#000000;" text-anchor="middle" transform="translate(0,0)" y="369" opacity="1">2011</text><text x="417.8199672667784" style="color:#000000;cursor:default;font-size:11px;fill:#000000;" text-anchor="middle" transform="translate(0,0)" y="369" opacity="1">2012</text><text x="453.3355155482847" style="color:#000000;cursor:default;font-size:11px;fill:#000000;" text-anchor="middle" transform="translate(0,0)" y="369" opacity="1">2013</text></g><g class="highcharts-axis-labels highcharts-yaxis-labels "><text x="26" style="color:#000000;cursor:default;font-size:11px;fill:#000000;" text-anchor="end" transform="translate(0,0)" y="355" opacity="1"><tspan>-15</tspan></text><text x="26" style="color:#000000;cursor:default;font-size:11px;fill:#000000;" text-anchor="end" transform="translate(0,0)" y="309" opacity="1"><tspan>-10</tspan></text><text x="26" style="color:#000000;cursor:default;font-size:11px;fill:#000000;" text-anchor="end" transform="translate(0,0)" y="263" opacity="1"><tspan>-5</tspan></text><text x="26" style="color:#000000;cursor:default;font-size:11px;fill:#000000;" text-anchor="end" transform="translate(0,0)" y="217" opacity="1"><tspan>0</tspan></text><text x="26" style="color:#000000;cursor:default;font-size:11px;fill:#000000;" text-anchor="end" transform="translate(0,0)" y="171" opacity="1"><tspan>5</tspan></text><text x="26" style="color:#000000;cursor:default;font-size:11px;fill:#000000;" text-anchor="end" transform="translate(0,0)" y="125" opacity="1"><tspan>10</tspan></text><text x="26" style="color:#000000;cursor:default;font-size:11px;fill:#000000;" text-anchor="end" transform="translate(0,0)" y="80" opacity="1"><tspan>15</tspan></text></g><text x="10" class="highcharts-credits" text-anchor="start" style="cursor:default;color:#000000;font-size:10px;fill:#000000;" y="400"><tspan>Quelle: Statistisches Amt Basel-Stadt, kantonale Steuerstatistik</tspan></text></svg>

<svg class="highcharts-root" xmlns="http://www.w3.org/2000/svg" width="485" height="415" font-family="arial" font-size="12">
    <defs>
        <clipPath id="a">
            <path fill="none" d="M0 0h434v275H0z"/>
        </clipPath>
    </defs>
    <rect fill="#fbfbfb" class="highcharts-background" width="485" height="415" rx="0" ry="0"/>
    <path fill="none" class="highcharts-plot-background" d="M41 75h434v275H41z"/>
    <g class="highcharts-grid highcharts-xaxis-grid">
        <path fill="none" class="highcharts-grid-line" d="M62.5 75v275m35-275v275m36-275v275m35-275v275m36-275v275m35-275v275m36-275v275m35-275v275m36-275v275m35-275v275m36-275v275m35-275v275"/>
    </g>
    <g class="highcharts-grid highcharts-yaxis-grid">
        <path fill="none" stroke="#B9CFD7" stroke-width=".5" class="highcharts-grid-line" d="M41 350.25h434m-434-46h434m-434-46h434m-434-45h434m-434-46h434m-434-46h434M41 74.75h434"/>
    </g>
    <path fill="none" class="highcharts-plot-border" d="M41 75h434v275H41z"/>
    <g class="highcharts-axis highcharts-xaxis">
        <path fill="none" class="highcharts-tick" stroke="#FFF" d="M62.5 350v10m35-10v10m36-10v10m35-10v10m36-10v10m35-10v10m36-10v10m35-10v10m36-10v10m35-10v10m36-10v10m35-10v10"/>
        <path fill="none" class="highcharts-axis-line" stroke="#B9CFD7" stroke-width=".5" d="M41 350.25h434"/>
    </g>
    <g class="highcharts-axis highcharts-yaxis">
        <path fill="none" class="highcharts-axis-line" d="M41 75v275"/>
    </g>
    <g class="highcharts-series-group">
        <g class="highcharts-series highcharts-series-0 highcharts-column-series highcharts-color-undefined" transform="translate(41 75)" clip-path="url(#a)">
            <path fill="#008AC3" class="highcharts-point highcharts-negative" d="M13 139h18v88H13zm36 0h18v113H49zm35 0h18v119H84zm36 0h18v121h-18zm35 0h18v39h-18zm36 0h18v10h-18zm35 0h18v22h-18z"/>
            <path fill="#008AC3" class="highcharts-point" d="M262 96h18v43h-18zm35-30h18v73h-18zm36 29h18v44h-18zm35-77h18v121h-18zm36 10h18v111h-18z"/>
        </g>
    </g>
    <text x="10" class="highcharts-title" y="21" color="#000" font-size="14" font-weight="700">
        <tspan>Saldo des Steuerertrages von Zu- und Wegzügern</tspan>
    </text>
    <g class="highcharts-data-labels highcharts-series-0 highcharts-column-series highcharts-color-undefined">
        <text x="5" y="15" font-size="10" font-weight="700" color="#000" transform="translate(49 302)" class="highcharts-label highcharts-data-label highcharts-data-label-color-undefined">
            <tspan x="5" y="15" class="highcharts-text-outline" fill="#FFF" stroke="#FFF" stroke-width="2" stroke-linejoin="round">-9,7</tspan><tspan x="5" y="15">-9,7</tspan>
        </text>
        <text x="5" y="15" font-size="10" font-weight="700" color="#000" transform="translate(439 80)" class="highcharts-label highcharts-data-label highcharts-data-label-color-undefined">
            <tspan x="5" y="15" class="highcharts-text-outline" fill="#FFF" stroke="#FFF" stroke-width="2" stroke-linejoin="round">12,1</tspan><tspan x="5" y="15">12,1</tspan>
        </text>
    </g>
    <g class="highcharts-axis-labels highcharts-xaxis-labels" text-anchor="middle" color="#000" cursor="default" font-size="11">
        <text x="62.664" y="369">
            2002
        </text>
        <text x="98.18" y="369">
            2003
        </text>
        <text x="133.696" y="369">
            2004
        </text>
        <text x="169.211" y="369">
            2005
        </text>
        <text x="204.727" y="369">
            2006
        </text>
        <text x="240.242" y="369">
            2007
        </text>
        <text x="275.758" y="369">
            2008
        </text>
        <text x="311.273" y="369">
            2009
        </text>
        <text x="346.789" y="369">
            2010
        </text>
        <text x="382.304" y="369">
            2011
        </text>
        <text x="417.82" y="369">
            2012
        </text>
        <text x="453.336" y="369">
            2013
        </text>
    </g>
    <g class="highcharts-axis-labels highcharts-yaxis-labels" text-anchor="end" color="#000" cursor="default" font-size="11">
        <text x="26" y="355">
            <tspan>-15</tspan>
        </text>
        <text x="26" y="309">
            <tspan>-10</tspan>
        </text>
        <text x="26" y="263">
            <tspan>-5</tspan>
        </text>
        <text x="26" y="217">
            <tspan>0</tspan>
        </text>
        <text x="26" y="171">
            <tspan>5</tspan>
        </text>
        <text x="26" y="125">
            <tspan>10</tspan>
        </text>
        <text x="26" y="80">
            <tspan>15</tspan>
        </text>
    </g>
    <text x="10" class="highcharts-credits" y="400" cursor="default" color="#000" font-size="10">
        <tspan>Quelle: Statistisches Amt Basel-Stadt, kantonale Steuerstatistik</tspan>
    </text>
</svg>
